images/instagram.svg

<svg width="38" height="37" viewBox="0 0 38 37" fill="none" xmlns="http://www.w3.org/2000/svg">
<path d="M26.4542 12.5053C26.2963 12.0996 26.0545 11.7313 25.7443 11.4239C25.4342 11.1166 25.0626 10.8771 24.6535 10.7209C24.0901 10.514 23.4951 10.4046 22.8945 10.3975C21.8955 10.3524 21.596 10.3411 19.0656 10.3411C16.5351 10.3411 16.2356 10.3524 15.2367 10.3975C14.6353 10.4044 14.0397 10.5138 13.4758 10.7209C13.0668 10.8776 12.6955 11.1174 12.3856 11.4251C12.0758 11.7327 11.8344 12.1013 11.6769 12.5071C11.4683 13.0659 11.358 13.6561 11.3509 14.252C11.3054 15.2428 11.294 15.5399 11.294 18.05C11.294 20.5601 11.3054 20.8571 11.3509 21.848C11.3578 22.4445 11.4681 23.0353 11.6769 23.5947C11.8348 24.0004 12.0766 24.3687 12.3868 24.6761C12.6969 24.9834 13.0685 25.2228 13.4777 25.379C14.041 25.586 14.636 25.6954 15.2367 25.7024C16.2356 25.7476 16.5351 25.757 19.0656 25.757C21.596 25.757 21.8955 25.7476 22.8945 25.7006C23.4957 25.6943 24.0913 25.5856 24.6554 25.379C25.0643 25.2224 25.4357 24.9826 25.7455 24.6749C26.0553 24.3673 26.2967 23.9987 26.4542 23.5928C26.6628 23.0341 26.7731 22.4439 26.7802 21.848C26.8257 20.8571 26.8352 20.5601 26.8352 18.05C26.8352 15.5399 26.8257 15.2428 26.7783 14.252C26.772 13.6556 26.6624 13.0648 26.4542 12.5053ZM19.0656 22.8784C18.1028 22.8784 17.1617 22.5952 16.3613 22.0646C15.5608 21.5341 14.9369 20.78 14.5685 19.8977C14.2 19.0155 14.1037 18.0446 14.2915 17.108C14.4793 16.1714 14.9429 15.3111 15.6236 14.6358C16.3044 13.9606 17.1717 13.5007 18.1159 13.3144C19.0602 13.1281 20.0389 13.2237 20.9283 13.5892C21.8178 13.9546 22.578 14.5735 23.1128 15.3675C23.6477 16.1615 23.9332 17.095 23.9332 18.05C23.9332 19.3306 23.4203 20.5587 22.5075 21.4642C21.5946 22.3697 20.3565 22.8784 19.0656 22.8784ZM24.1246 14.1598C23.8997 14.1598 23.6798 14.0937 23.4928 13.9697C23.3058 13.8458 23.16 13.6696 23.0739 13.4634C22.9878 13.2573 22.9653 13.0305 23.0092 12.8116C23.0531 12.5928 23.1614 12.3918 23.3204 12.234C23.4795 12.0762 23.6821 11.9688 23.9028 11.9253C24.1234 11.8817 24.352 11.9041 24.5599 11.9895C24.7677 12.0749 24.9453 12.2194 25.0703 12.405C25.1952 12.5905 25.2619 12.8086 25.2619 13.0317C25.2619 13.3309 25.1421 13.6179 24.9288 13.8294C24.7155 14.041 24.4263 14.1598 24.1246 14.1598ZM22.2253 18.05C22.2253 18.6699 22.04 19.2759 21.6928 19.7913C21.3456 20.3068 20.8521 20.7085 20.2748 20.9457C19.6974 21.1829 19.0621 21.245 18.4491 21.1241C17.8362 21.0031 17.2732 20.7046 16.8313 20.2663C16.3894 19.8279 16.0884 19.2695 15.9665 18.6615C15.8446 18.0535 15.9071 17.4233 16.1463 16.8505C16.3855 16.2778 16.7905 15.7883 17.3101 15.4439C17.8297 15.0995 18.4406 14.9157 19.0656 14.9157C19.9036 14.9157 20.7073 15.2459 21.2999 15.8337C21.8924 16.4215 22.2253 17.2187 22.2253 18.05ZM19.0656 0C15.4666 0 11.9484 1.05861 8.95601 3.04197C5.96357 5.02533 3.63125 7.84436 2.25399 11.1426C0.87672 14.4408 0.516364 18.07 1.21849 21.5714C1.92061 25.0727 3.65368 28.2889 6.19854 30.8133C8.7434 33.3376 11.9857 35.0567 15.5156 35.7532C19.0454 36.4496 22.7041 36.0922 26.0291 34.726C29.3542 33.3599 32.1961 31.0463 34.1956 28.078C36.1951 25.1097 37.2623 21.6199 37.2623 18.05C37.2623 13.2628 35.3451 8.67175 31.9326 5.28672C28.52 1.90169 23.8916 0 19.0656 0ZM28.4862 21.9251C28.4701 22.7053 28.3208 23.4771 28.0445 24.2077C27.8011 24.8321 27.4288 25.3991 26.9516 25.8725C26.4744 26.3458 25.9028 26.7151 25.2733 26.9565C24.5373 27.2304 23.7599 27.3785 22.9741 27.3946C21.9619 27.4398 21.6396 27.451 19.0656 27.451C16.4915 27.451 16.1693 27.4398 15.1571 27.3946C14.3712 27.3785 13.5938 27.2304 12.8578 26.9565C12.2284 26.7151 11.6567 26.3458 11.1795 25.8725C10.7023 25.3991 10.33 24.8321 10.0866 24.2077C9.81056 23.4777 9.66123 22.7065 9.64497 21.927C9.59948 20.923 9.5881 20.6033 9.5881 18.05C9.5881 15.4967 9.59948 15.177 9.64497 14.173C9.66062 13.3936 9.80931 12.6224 10.0847 11.8923C10.3281 11.2674 10.7006 10.6999 11.1781 10.2262C11.6557 9.75246 12.2278 9.38302 12.8578 9.14157C13.5939 8.86838 14.3713 8.72089 15.1571 8.70536C16.1693 8.66024 16.4915 8.64896 19.0656 8.64896C21.6396 8.64896 21.9619 8.66024 22.9741 8.70536C23.7598 8.72089 24.5372 8.86838 25.2733 9.14157C25.9029 9.38324 26.4747 9.75278 26.9519 10.2265C27.4291 10.7002 27.8013 11.2676 28.0445 11.8923C28.3206 12.6223 28.4699 13.3935 28.4862 14.173C28.5316 15.177 28.543 15.4967 28.543 18.05C28.543 20.6033 28.5316 20.9211 28.4862 21.9251Z" fill="white"/>
</svg>

<svg xmlns="http://www.w3.org/2000/svg" width="38" height="37" fill="none" viewBox="0 0 38 37"><path fill="#fff" d="M26.454 12.505a3.1 3.1 0 0 0-.71-1.081 3.1 3.1 0 0 0-1.09-.703 5.3 5.3 0 0 0-1.76-.323c-.998-.046-1.298-.057-3.828-.057s-2.83.011-3.83.057a5.3 5.3 0 0 0-1.76.323 3.13 3.13 0 0 0-1.8 1.786 5.2 5.2 0 0 0-.325 1.745c-.046.99-.057 1.288-.057 3.798s.011 2.807.057 3.798c.007.597.117 1.187.326 1.747a3.14 3.14 0 0 0 1.8 1.784 5.3 5.3 0 0 0 1.76.323c.999.046 1.298.055 3.829.055 2.53 0 2.83-.01 3.829-.056a5.3 5.3 0 0 0 1.76-.322 3.14 3.14 0 0 0 1.8-1.786 5.2 5.2 0 0 0 .325-1.745c.046-.99.055-1.288.055-3.798s-.01-2.807-.057-3.798a5.2 5.2 0 0 0-.324-1.747m-7.388 10.373a4.9 4.9 0 0 1-2.705-.813 4.84 4.84 0 0 1-1.793-2.167 4.8 4.8 0 0 1-.277-2.79 4.8 4.8 0 0 1 1.333-2.472 4.9 4.9 0 0 1 5.305-1.047 4.86 4.86 0 0 1 2.184 1.778 4.8 4.8 0 0 1-.605 6.097 4.9 4.9 0 0 1-3.442 1.414m5.059-8.718a1.14 1.14 0 0 1-1.051-.697 1.12 1.12 0 0 1 .246-1.229 1.14 1.14 0 0 1 1.24-.245 1.14 1.14 0 0 1 .702 1.043c0 .299-.12.586-.333.797s-.503.33-.804.33m-1.9 3.89c0 .62-.185 1.226-.532 1.741s-.84.918-1.418 1.155a3.18 3.18 0 0 1-3.444-.68 3.11 3.11 0 0 1-.685-3.416 3.14 3.14 0 0 1 1.164-1.406 3.18 3.18 0 0 1 3.99.39c.592.588.925 1.385.925 2.216M19.065 0A18.3 18.3 0 0 0 8.957 3.042a18.1 18.1 0 0 0-6.702 8.1 17.9 17.9 0 0 0-1.036 10.43 18 18 0 0 0 4.98 9.241 18.24 18.24 0 0 0 9.318 4.94c3.53.697 7.188.34 10.513-1.027a18.17 18.17 0 0 0 8.167-6.648 17.94 17.94 0 0 0 3.066-10.028c0-4.787-1.917-9.378-5.33-12.763A18.27 18.27 0 0 0 19.067 0m9.421 21.925a6.9 6.9 0 0 1-.442 2.283 4.8 4.8 0 0 1-1.092 1.665 4.85 4.85 0 0 1-1.679 1.083 7 7 0 0 1-2.299.439c-1.012.045-1.334.056-3.908.056-2.575 0-2.897-.011-3.909-.056a7 7 0 0 1-2.3-.439 4.85 4.85 0 0 1-1.677-1.084 4.8 4.8 0 0 1-1.093-1.664 6.9 6.9 0 0 1-.442-2.281c-.046-1.004-.057-1.324-.057-3.877s.011-2.873.057-3.877c.016-.78.164-1.55.44-2.28a4.8 4.8 0 0 1 1.093-1.667 4.85 4.85 0 0 1 1.68-1.084 7 7 0 0 1 2.3-.437c1.011-.045 1.333-.056 3.908-.056 2.574 0 2.896.011 3.908.056a7 7 0 0 1 2.3.437 4.83 4.83 0 0 1 2.77 2.75c.277.73.426 1.502.442 2.281.046 1.004.057 1.324.057 3.877s-.011 2.871-.057 3.875"/></svg>
